X:1
T:Title
%%score 1 { 2 | 3 }
L:1/8
Q:1/4=100
M:4/4
K:G
V:1 treble nm="Grand Piano, Soprano"
V:2 bass nm="Choir Pad, Bass"
V:3 bass 
V:1
 DD[DG][DG] [DG]>[DG] [DG]2 | [GB]>[FA] [DG]4 [B,D]2 | [B,D][B,D][CE][CE] [CE][CE] [CE]2 | %3
w: By~William~Howard~Doane * * * * * *|||
 [^CA]>[EG] [DF]4 D2 | DD[DG][DG] [DG]>[DA] [GB]2 | [Gd]>[Gd] [Fd]4 [FA]2 | %6
w: |||
 [Ac][Ac][GB][GB] [Gc][EA] [DG]2 | [DF][DA] [DG]6 | [Gd]>[Ge] [Gd]4 [GB]2 | [GB]>[Gc] [GB]4 [DG]2 | %10
w: ||||
 [DF][DG][FA][FA] [FA]>[FA] [FA]2 | [Fd]>[Fd] [Gd]4 [GB]2 | [Gd]>[Ge] [Gd]4 [GB]2 | %13
w: |||
 [GB]>[Gc] [GB]4 G2 | [Ac][Ac][GB][GB] [Gc][EA] [DG]2 | [DF][DA] [DG]6- | [DG]2 z2 z4 |] %17
w: ||||
V:2
 D,D,B,B, B,>B, B,2 | D>C B,4 G,2 | G,G,G,G, G,G, G,2 | G,>A, A,4 F,2 | D,D,B,B, B,>C D2 | %5
 B,>B, A,4[K:treble] D2 | DDDD EC[K:bass] B,2 | A,C B,6 | B,>[K:treble]C B,4 D2 | D>E D4 B,2 | %10
 CB,DD D>D D2 | C>C[K:bass] B,4 D2 | B,>C B,4[K:treble] D2 | D>E D4 B,2 | DDDD EC[K:bass] B,2 | %15
 A,C B,6- | B,2 z2 z4 |] %17
V:3
 z2 G,G, G,>G, G,2 | D,>D, [G,,G,]4 G,,2 | G,,G,,C,C, C,C, C,2 | A,,>^C, D,4 D,2 | %4
 z2 G,G, G,>G, G,2 | G,>G, D,4 D,2 | F,F,G,G, C,C, D,2 | D,D, G,,6 | G,>G, G,4 G,2 | %9
 G,>G, G,4 G,2 | A,G,D,D, D,>D, D,2 | D,>D, G,4 G,2 | G,>G, G,4 G,2 | G,>G, G,4 G,2 | %14
 F,F,G,G, C,C, D,2 | D,D, G,,6- | G,,2 z2 z4 |] %17

